X:1
T:Keep Your Colors Flying
T:Keep Your Colors Flying
T:Tasso Corben
T:Jeremiah Eames Rankin, 1886
T:Public Domain Courtesy of the Cyber Hymnal™
T:Public Domain Courtesy of the Cyber Hymnal™
C:Tasso Corben
Z:Public Domain
Z:Courtesy of the Cyber Hymnal™
%%score 1 ( 2 3 )
L:1/8
M:4/4
K:Bb
V:1 treble 
V:2 bass 
V:3 bass 
V:1
 [DF]3 [EG] [DF]2 [Fd]2 | [Fd]4 [DB]4 | [EG]3 [FA] [GB]2 [EG]2 | [DF]8 | [DF]3 [EG] [DF]2 [FB]2 | %5
w: 1.~Keep your col- ors|fly- ing,|All ye Christ- ian|youth,|To Christ’s call re-|
w: 2.~Life is all be-|fore you|Where to choose your|way,|Keep Christ’s col- ors|
w: 3.~Keep your col- ors|fly- ing,|Nev- er think of|ease;|Sin and self de-|
w: 4.~Keep your col- ors|fly- ing,|Walk as Je- sus|did;|In Him liv- ing,|
 [EG]4 [Ge]4 | [Fd]3 [Ec] [DB]2 [EA]2 | [DB]8 | [Fd]3 [Ec] [DB]2 [Fd]2 | [Fe]4 [Fc]4 | %10
w: ply- ing,|Full of grace and|truth.|Rise in strength and|beau- ty,|
w: o’er you;|Watch and fight and|pray,|With a firm en-|dea- vor,|
w: ny- ing,|Je- sus on- ly|please.|Not for world- ly|plea- sure,|
w: dy- ing,|Let your life be|hid;|Hop- ing, trust- ing,|ev- er,|
 [Fc]3 [Fc] [=Ec]2 [Ed]2 | [Fc]8 x6 | [Fd]3 [Ec] [DB]2 [Fd]2 | [_Af]4 [Ge]4 | %14
w: In life’s morn- ing|glow,|An- swer to each|du- ty,|
w: Ev- ’ry foe de-|fy,|True to Je- sus|ev- er,|
w: Not for world- ly|fame,|Not for heaps of|trea- sure,|
w: Breathe this mor- tal|breath;|You shall live for-|ev- er,|
 [Fd]3 [Ec] [DB]2 [EA]2 | [DB]8 ||"^Refrain" [DF]3 [EG] [DF]2 [Fd]2 | [Fd]4 [FB]4 | %18
w: On- ward, up- ward|go.|||
w: Lift your col- ors|high.|Keep your col- ors|fly- ing,|
w: Live for Je- sus’|name!|||
w: Christ has con- quered|death.|||
 [EG]3 [FB] [GB]2 [Gc]2 | [^Fd]8 | [DF]3 [EG] [DF]2 [FB]2 | [EG]4 [Ge]4 | [Fd]3 [Ec] [DB]2 [EA]2 | %23
w: |||||
w: Stand for God and|truth,|Keep your col- ors|fly- ing,|All ye Chris- tian|
w: |||||
w: |||||
 [DB]8 |] %24
w: |
w: youth.|
w: |
w: |
V:2
 [B,,B,]3 [B,,B,] [B,,B,]2 [B,,B,]2 | [B,,B,]4 [B,,B,]4 | [E,B,]3 [E,B,] [E,B,]2 [E,B,]2 | %3
 [B,,B,]8 | [B,,B,]3 [B,,B,] [B,,B,]2 [D,B,]2 | [E,B,]4 [E,B,]4 | [F,B,]3 [F,A,] [F,B,]2 F,2 | %7
 [B,,F,]8 | B,3 B, B,2 B,2 | [F,C]4 [F,A,]4 | [F,A,]3 [F,A,] [C,B,]2 [C,B,]2 | %11
 [F,A,]8 ([D,,D,]2 [C,,C,]2 [B,,,B,,]2) | B,3 B, B,2 B,2 | [D,B,]4 [E,B,]4 | %14
 [F,B,]3 [F,A,] [F,B,]2 F,2 | [B,,F,]8 || [B,,B,]3 [B,,B,] [B,,B,]2 [B,,B,]2 | [B,,B,]4 [D,B,]4 | %18
 [E,B,]3 [E,B,] [E,B,]2 [E,G,]2 | [D,A,]8 | [B,,B,]3 [B,,B,] [B,,B,]2 [D,B,]2 | [E,B,]4 [E,B,]4 | %22
 [F,B,]3 [F,A,] [F,B,]2 F,2 | [B,,F,]8 |] %24
V:3
 x8 | x8 | x8 | x8 | x8 | x8 | x6 F,2 | x8 | B,3 B, B,2 B,2 | x8 | x8 | [E,,E,]2 x12 | %12
 B,3 B, B,2 B,2 | x8 | x6 F,2 | x8 || x8 | x8 | x8 | x8 | x8 | x8 | x6 F,2 | x8 |] %24

